X:1     %Music
T:Rosebud in June
Z:John Broadwood, 1843
F:http://www.folkinfo.org/songs
Q:1/4=90     %Tempo
M:6/8     %Meter
L:1/8     %
K:Ab
C3/2C/ |CFG A3/2G/F |F=EF GC 
w:Here the rose-buds in June, and the vio-lets are blow-ing,
C |FFG AGF | c(d/c/)B c2
w: The small bird they war-ble on ev'-ry_ green bough,
 A3/4A// |A(A/B/)(c/d/) ecB3/4A// |B3/2A/B cG
w: Here's the pink and_ the_ li-ly and the daf-fy down dil-ly 
 A/B/ |cAF (F=E)F/E/ |FcA (F=E)
w:To a-dorn and per-fume _those sweet mea-dows in June._ 
 A/B/ |c3/2B/c G3/2A/B |AGF C2 
w:If it weren't for the plough the fat ox would go slow 
C/C/ |FF/G/A/B/ cfc/B/ | cAG F  |]
w:And the lads and the bon-ny las-ses to the sheep shear-ing go.